humanity-icon-theme/Humanity/apps/48/evolution.svg

<?xml version="1.0" encoding="UTF-8" standalone="no"?>
<!-- Created with Inkscape (http://www.inkscape.org/) -->

<svg
   xmlns:svg="http://www.w3.org/2000/svg"
   xmlns="http://www.w3.org/2000/svg"
   xmlns:xlink="http://www.w3.org/1999/xlink"
   version="1.1"
   width="48"
   height="48"
   viewBox="0 0 48 48"
   id="svg6850"
   xml:space="preserve">
<defs
   id="defs7232"><radialGradient
     cx="605.71429"
     cy="486.64789"
     r="117.14286"
     fx="605.71429"
     fy="486.64789"
     id="radialGradient5031"
     xlink:href="#linearGradient5060"
     gradientUnits="userSpaceOnUse"
     gradientTransform="matrix(-2.774389,0,0,1.969706,112.7623,-872.8854)" /><linearGradient
     id="linearGradient5060"><stop
       id="stop5062"
       style="stop-color:black;stop-opacity:1"
       offset="0" /><stop
       id="stop5064"
       style="stop-color:black;stop-opacity:0"
       offset="1" /></linearGradient><radialGradient
     cx="605.71429"
     cy="486.64789"
     r="117.14286"
     fx="605.71429"
     fy="486.64789"
     id="radialGradient5029"
     xlink:href="#linearGradient5060"
     gradientUnits="userSpaceOnUse"
     gradientTransform="matrix(2.774389,0,0,1.969706,-1891.633,-872.8854)" /><linearGradient
     id="linearGradient5048"><stop
       id="stop5050"
       style="stop-color:black;stop-opacity:0"
       offset="0" /><stop
       id="stop5056"
       style="stop-color:black;stop-opacity:1"
       offset="0.5" /><stop
       id="stop5052"
       style="stop-color:black;stop-opacity:0"
       offset="1" /></linearGradient><linearGradient
     x1="302.85715"
     y1="366.64789"
     x2="302.85715"
     y2="609.50507"
     id="linearGradient5027"
     xlink:href="#linearGradient5048"
     gradientUnits="userSpaceOnUse"
     gradientTransform="matrix(2.774389,0,0,1.969706,-1892.179,-872.8854)" /><linearGradient
     id="linearGradient2136">
  <stop
   id="stop2138"
   style="stop-color:#a0a0a0;stop-opacity:1"
   offset="0" />
  <stop
   id="stop2140"
   style="stop-color:#6e6e6e;stop-opacity:1"
   offset="1" />
</linearGradient><linearGradient
     id="linearGradient15107">
  <stop
   id="stop15109"
   style="stop-color:white;stop-opacity:1"
   offset="0" />
  <stop
   id="stop15111"
   style="stop-color:#e2e2e2;stop-opacity:1"
   offset="1" />
</linearGradient><linearGradient
     id="linearGradient18913">
  <stop
   id="stop18915"
   style="stop-color:#ededed;stop-opacity:1"
   offset="0" />
  <stop
   id="stop18917"
   style="stop-color:#c8c8c8;stop-opacity:1"
   offset="1" />
</linearGradient><linearGradient
     id="linearGradient2166">
  <stop
   id="stop2168"
   style="stop-color:white;stop-opacity:1"
   offset="0" />
  <stop
   id="stop2170"
   style="stop-color:#dcdcdc;stop-opacity:1"
   offset="1" />
</linearGradient><linearGradient
     id="linearGradient2152">
  <stop
   id="stop2154"
   style="stop-color:#9e9e9e;stop-opacity:1"
   offset="0" />
  <stop
   id="stop2156"
   style="stop-color:#b9b9b9;stop-opacity:1"
   offset="1" />
</linearGradient><linearGradient
     id="linearGradient9749">
  <stop
   id="stop9751"
   style="stop-color:white;stop-opacity:1"
   offset="0" />
  <stop
   id="stop9753"
   style="stop-color:#ededed;stop-opacity:1"
   offset="1" />
</linearGradient><linearGradient
     id="linearGradient2274">
  <stop
   id="stop2276"
   style="stop-color:black;stop-opacity:0.12871288"
   offset="0" />
  <stop
   id="stop2278"
   style="stop-color:black;stop-opacity:0"
   offset="1" />
</linearGradient><linearGradient
     x1="8.7803764"
     y1="37.784683"
     x2="9.7619219"
     y2="32.203163"
     id="linearGradient2915"
     xlink:href="#linearGradient2274"
     gradientUnits="userSpaceOnUse"
     gradientTransform="matrix(2.5874757,0,0,0.86210126,0.43271521,0.37932622)" /><linearGradient
     x1="11.233107"
     y1="13.686079"
     x2="21.111549"
     y2="24.132717"
     id="linearGradient2920"
     xlink:href="#linearGradient9749"
     gradientUnits="userSpaceOnUse"
     gradientTransform="matrix(1.4558841,0,0,1.5322297,0.24952227,0.60772692)" /><linearGradient
     x1="8.9156475"
     y1="37.197018"
     x2="9.8855038"
     y2="52.090679"
     id="linearGradient2923"
     xlink:href="#linearGradient2152"
     gradientUnits="userSpaceOnUse"
     gradientTransform="matrix(2.5989457,0,0,0.81715676,0.77107985,1.2196721)" /><linearGradient
     x1="8.9156475"
     y1="37.197018"
     x2="9.8855038"
     y2="52.090679"
     id="linearGradient2926"
     xlink:href="#linearGradient2152"
     gradientUnits="userSpaceOnUse"
     gradientTransform="matrix(2.5989457,0,0,0.81715676,0.77107985,1.2196721)" /><linearGradient
     x1="10.18424"
     y1="15.148383"
     x2="15.310744"
     y2="29.568739"
     id="linearGradient2929"
     xlink:href="#linearGradient2166"
     gradientUnits="userSpaceOnUse"
     gradientTransform="matrix(1.9655549,0,0,1.1348788,0.43271521,0.77934822)" /><linearGradient
     x1="5.8266134"
     y1="7.2310905"
     x2="13.467486"
     y2="17.876846"
     id="linearGradient2935"
     xlink:href="#linearGradient18913"
     gradientUnits="userSpaceOnUse"
     gradientTransform="matrix(1.6628452,0,0,1.2771772,0.77107985,1.2196721)" /><linearGradient
     x1="11.572842"
     y1="4.7461624"
     x2="18.475286"
     y2="26.022909"
     id="linearGradient2938"
     xlink:href="#linearGradient15107"
     gradientUnits="userSpaceOnUse"
     gradientTransform="matrix(1.4171629,0,0,1.4879055,0.85662815,1.2988545)" /><linearGradient
     x1="2.0618775"
     y1="15.257116"
     x2="30.599684"
     y2="15.257116"
     id="linearGradient2940"
     xlink:href="#linearGradient2136"
     gradientUnits="userSpaceOnUse"
     gradientTransform="matrix(1.4171629,0,0,1.4879055,0.85662815,1.2988545)" /></defs>


	
	
<g
   transform="matrix(0.02167025,0,0,0.01254293,43.274286,42.89018)"
   id="g5022"
   style="opacity:0.84924622;display:inline"><rect
     width="1339.6335"
     height="478.35718"
     x="-1559.2523"
     y="-150.69685"
     id="rect4173"
     style="opacity:0.40206185;color:black;fill:url(#linearGradient5027);fill-opacity:1;fill-rule:nonzero;stroke:none;stroke-width:1;marker:none;visibility:visible;display:inline;overflow:visible" /><path
     d="m -219.61876,-150.68038 c 0,0 0,478.33079 0,478.33079 142.874166,0.90045 345.40022,-107.16966 345.40014,-239.196175 0,-132.026537 -159.436816,-239.134595 -345.40014,-239.134615 z"
     id="path5058"
     style="opacity:0.40206185;color:black;fill:url(#radialGradient5029);fill-opacity:1;fill-rule:nonzero;stroke:none;stroke-width:1;marker:none;visibility:visible;display:inline;overflow:visible" /><path
     d="m -1559.2523,-150.68038 c 0,0 0,478.33079 0,478.33079 -142.8742,0.90045 -345.4002,-107.16966 -345.4002,-239.196175 0,-132.026537 159.4368,-239.134595 345.4002,-239.134615 z"
     id="path5018"
     style="opacity:0.40206185;color:black;fill:url(#radialGradient5031);fill-opacity:1;fill-rule:nonzero;stroke:none;stroke-width:1;marker:none;visibility:visible;display:inline;overflow:visible" /></g><path
   d="m 4.5,18.77951 0,25.72049 39,0 -0.0644,-25.597071 C 43.431891,17.457279 30.937218,3.4999999 28.632244,3.4999999 l -9.020526,0 c -2.423325,0 -15.1117163,13.9170671 -15.1117163,15.2795101 z"
   id="path12723"
   style="fill:url(#linearGradient2938);fill-opacity:1;fill-rule:evenodd;stroke:url(#linearGradient2940);stroke-width:0.99999988;stroke-linecap:butt;stroke-linejoin:round;stroke-miterlimit:4;stroke-opacity:1;stroke-dasharray:none" /><path
   d="M 5.0520964,18.853977 C 4.630682,18.392717 17.637095,4.1692872 19.603411,4.1692872 l 8.867646,0 c 1.850111,0 14.860942,14.0782588 14.21566,14.8904288 L 31.187639,33.532749 18.151009,33.191408 5.0520964,18.853977 z"
   id="path18153"
   style="fill:url(#linearGradient2935);fill-opacity:1;fill-rule:evenodd;stroke:none" /><path
   d="M 17.933227,33.532996 10.010571,23.8795 36.824666,16.223732 40,22.885954 32.084909,33.505079"
   id="path2164"
   style="fill:black;fill-opacity:0.14619883;fill-rule:evenodd;stroke:none" /><path
   d="M 17.08428,33.33285 9,23.608592 35.629392,16 l 3.429307,6.921683 -7.822738,10.383252"
   id="path2162"
   style="fill:black;fill-opacity:0.14619883;fill-rule:evenodd;stroke:none" /><path
   d="M 17.606709,33.46628 9.3146362,23.907135 36.290352,16.109842 39.742748,23.220225 31.75839,33.438366"
   id="path2160"
   style="fill:black;fill-opacity:0.14619883;fill-rule:evenodd;stroke:none" /><path
   d="M 17.410798,34 9.4881385,24.346504 36.186793,16.737911 39.385217,23.588833 31.56248,33.972085"
   id="path15105"
   style="fill:url(#linearGradient2929);fill-opacity:1;fill-rule:evenodd;stroke:none" /><path
   d="M 19.414136,32.019817 5.2314551,43.785946 19.957136,33 29.50491,33 42.653301,43.654994 30.093162,32.019817 l -10.679026,0 z"
   id="path14245"
   style="fill:url(#linearGradient2926);fill-opacity:1;fill-rule:evenodd;stroke:none" /><path
   d="M 5.0948849,18.959114 17.287379,34.311495 18.418633,33.394823 5.0948849,18.959114 z"
   id="path14339"
   style="color:black;fill:url(#linearGradient2923);fill-opacity:1;fill-rule:evenodd;stroke:none;stroke-width:1;marker:none;visibility:visible;display:inline;overflow:visible" /><path
   d="m 5.4283018,18.938349 0.033082,24.633352 37.1103122,0 -0.06617,-24.499527 C 42.503455,18.277171 30.594139,4.4283022 28.292002,4.4283022 l -8.384946,0 c -2.391838,0 -14.479865,13.6818818 -14.4787532,14.5100468 z"
   id="path15103"
   style="fill:none;stroke:url(#linearGradient2920);stroke-width:0.85660416;stroke-linecap:butt;stroke-linejoin:miter;stroke-miterlimit:4;stroke-opacity:1" /><path
   d="M 19.910508,33 7.2677102,42.378201 9.6174856,42.384701 20.202779,35.018594 29.542778,33 l -9.63227,0 0,0 z"
   id="path17393"
   style="fill:white;fill-opacity:1;fill-rule:evenodd;stroke:none" /><path
   d="M 10,24.34542 11.420032,25.876349 35.84652,18.40398 38.809634,24.375894 39.5,23.603154 36.339287,16.876349 10,24.34542 z"
   id="path2174"
   style="fill:white;fill-opacity:1;fill-rule:evenodd;stroke:none" /><path
   d="m 11.699872,26.089601 6.510935,7.123399 1.292953,-1.132196 10.897734,0.04717 0.87736,0.801972 4.294447,-5.236406 C 34.326526,26.136771 11.699872,26.089596 11.699872,26.089596 z"
   id="path2272"
   style="fill:url(#linearGradient2915);fill-opacity:1;fill-rule:evenodd;stroke:none" />

</svg>

<?xml version="1.0" encoding="UTF-8" standalone="no"?>
<!-- Created with Inkscape (http://www.inkscape.org/) -->
<svg id="svg6850" xmlns="http://www.w3.org/2000/svg" xml:space="preserve" height="48" width="48" version="1.1" xmlns:xlink="http://www.w3.org/1999/xlink" viewBox="0 0 48 48">
<defs id="defs7232"><radialGradient id="radialGradient5031" xlink:href="#linearGradient5060" gradientUnits="userSpaceOnUse" cy="486.65" cx="605.71" gradientTransform="matrix(-2.7744 0 0 1.9697 112.76 -872.89)" r="117.14"/><linearGradient id="linearGradient5060"><stop id="stop5062" offset="0"/><stop id="stop5064" style="stop-opacity:0" offset="1"/></linearGradient><radialGradient id="radialGradient5029" xlink:href="#linearGradient5060" gradientUnits="userSpaceOnUse" cy="486.65" cx="605.71" gradientTransform="matrix(2.7744 0 0 1.9697 -1891.6 -872.89)" r="117.14"/><linearGradient id="linearGradient5027" y2="609.51" gradientUnits="userSpaceOnUse" x2="302.86" gradientTransform="matrix(2.7744 0 0 1.9697 -1892.2 -872.89)" y1="366.65" x1="302.86"><stop id="stop5050" style="stop-opacity:0" offset="0"/><stop id="stop5056" offset=".5"/><stop id="stop5052" style="stop-opacity:0" offset="1"/></linearGradient><linearGradient id="linearGradient2152">
  <stop id="stop2154" style="stop-color:#9e9e9e" offset="0"/>
  <stop id="stop2156" style="stop-color:#b9b9b9" offset="1"/>
</linearGradient><linearGradient id="linearGradient2915" y2="32.203" gradientUnits="userSpaceOnUse" x2="9.7619" gradientTransform="matrix(2.5875 0 0 .86210 .43272 .37933)" y1="37.785" x1="8.7804"><stop id="stop2276" style="stop-opacity:.12871" offset="0"/><stop id="stop2278" style="stop-opacity:0" offset="1"/></linearGradient><linearGradient id="linearGradient2920" y2="24.133" gradientUnits="userSpaceOnUse" x2="21.112" gradientTransform="matrix(1.4559 0 0 1.5322 .24952 .60773)" y1="13.686" x1="11.233"><stop id="stop9751" style="stop-color:#fff" offset="0"/><stop id="stop9753" style="stop-color:#ededed" offset="1"/></linearGradient><linearGradient id="linearGradient2923" y2="52.091" xlink:href="#linearGradient2152" gradientUnits="userSpaceOnUse" x2="9.8855" gradientTransform="matrix(2.5989 0 0 .81716 .77108 1.2197)" y1="37.197" x1="8.9156"/><linearGradient id="linearGradient2929" y2="29.569" gradientUnits="userSpaceOnUse" x2="15.311" gradientTransform="matrix(1.9656 0 0 1.1349 .43272 .77935)" y1="15.148" x1="10.184"><stop id="stop2168" style="stop-color:#fff" offset="0"/><stop id="stop2170" style="stop-color:#dcdcdc" offset="1"/></linearGradient><linearGradient id="linearGradient2935" y2="17.877" gradientUnits="userSpaceOnUse" x2="13.467" gradientTransform="matrix(1.6628 0 0 1.2772 .77108 1.2197)" y1="7.2311" x1="5.8266"><stop id="stop18915" style="stop-color:#ededed" offset="0"/><stop id="stop18917" style="stop-color:#c8c8c8" offset="1"/></linearGradient><linearGradient id="linearGradient2938" y2="26.023" gradientUnits="userSpaceOnUse" x2="18.475" gradientTransform="matrix(1.4172 0 0 1.4879 .85663 1.2989)" y1="4.7462" x1="11.573"><stop id="stop15109" style="stop-color:#fff" offset="0"/><stop id="stop15111" style="stop-color:#e2e2e2" offset="1"/></linearGradient><linearGradient id="linearGradient2940" y2="15.257" gradientUnits="userSpaceOnUse" x2="30.6" gradientTransform="matrix(1.4172 0 0 1.4879 .85663 1.2989)" y1="15.257" x1="2.0619"><stop id="stop2138" style="stop-color:#a0a0a0" offset="0"/><stop id="stop2140" style="stop-color:#6e6e6e" offset="1"/></linearGradient></defs>
<g id="g5022" style="opacity:.84925" transform="matrix(.021670 0 0 .012543 43.274 42.89)"><rect id="rect4173" style="opacity:.40206;color:black;fill:url(#linearGradient5027)" height="478.36" width="1339.6" y="-150.7" x="-1559.3"/><path id="path5058" style="opacity:.40206;color:black;fill:url(#radialGradient5029)" d="m-219.62-150.68v478.33c142.87 0.90045 345.4-107.17 345.4-239.2s-159.44-239.13-345.4-239.13z"/><path id="path5018" style="opacity:.40206;color:black;fill:url(#radialGradient5031)" d="m-1559.3-150.68v478.33c-142.87 0.90045-345.4-107.17-345.4-239.2s159.44-239.13 345.4-239.13z"/></g><path id="path12723" style="stroke-linejoin:round;fill-rule:evenodd;stroke:url(#linearGradient2940);fill:url(#linearGradient2938)" d="m4.5 18.78v25.72h39l-0.0644-25.597c-0.004-1.446-12.499-15.403-14.804-15.403h-9.0205c-2.4233 0-15.112 13.917-15.112 15.28z"/><path id="path18153" style="fill:url(#linearGradient2935);fill-rule:evenodd" d="m5.0521 18.854c-0.4214-0.461 12.585-14.685 14.551-14.685h8.8676c1.8501 0 14.861 14.078 14.216 14.89l-11.499 14.474-13.037-0.342-13.099-14.337z"/><path id="path2164" style="fill-opacity:.14620;fill-rule:evenodd" d="m17.933 33.533-7.922-9.653 26.814-7.656 3.175 6.662-7.915 10.619"/><path id="path2162" style="fill-opacity:.14620;fill-rule:evenodd" d="m17.084 33.333-8.084-9.724 26.629-7.609l3.4293 6.9217-7.8227 10.383"/><path id="path2160" style="fill-opacity:.14620;fill-rule:evenodd" d="m17.607 33.466-8.2924-9.559 26.975-7.797 3.453 7.11-7.985 10.218"/><path id="path15105" style="fill:url(#linearGradient2929);fill-rule:evenodd" d="m17.411 34-7.9229-9.653 26.699-7.609 3.198 6.851-7.823 10.383"/><path id="path14245" style="fill-rule:evenodd;fill:url(#linearGradient2923)" d="m19.414 32.02-14.182 11.766 14.725-10.786h9.548l13.148 10.655-12.56-11.635h-10.679z"/><path id="path14339" style="color:black;fill-rule:evenodd;fill:url(#linearGradient2923)" d="m5.0949 18.959 12.192 15.352 1.132-0.916-13.324-14.436z"/><path id="path15103" style="stroke:url(#linearGradient2920);stroke-width:.85660;fill:none" d="m5.4283 18.938 0.033082 24.633h37.11l-0.06617-24.5c-0.002-0.794-11.911-14.643-14.213-14.643h-8.3849c-2.3918 0-14.48 13.682-14.479 14.51z"/><path id="path17393" style="fill:#fff;fill-rule:evenodd" d="m19.911 33-12.643 9.378 2.3495 0.007 10.586-7.366 9.339-2.019h-9.6323z"/><path id="path2174" style="fill:#fff;fill-rule:evenodd" d="m10 24.345 1.42 1.531 24.427-7.472 2.963 5.972 0.69-0.773-3.161-6.727-26.339 7.469z"/><path id="path2272" style="fill:url(#linearGradient2915);fill-rule:evenodd" d="m11.7 26.09 6.5109 7.1234 1.293-1.1322 10.898 0.04717 0.87736 0.80197 4.2944-5.2364c-1.246-1.557-23.873-1.604-23.873-1.604z"/>
</svg>
